X:1
L:1/8
M:2/2
K:D
 g | f>de>c d>BA>F | E>=CC>E G3 g | f>d e>c d>B A>c | dD D>F A3 =c | B>GA>F G>EF>D | 
 G/F/E/D/ =C>E G>AGE | F<DG<E A<FB<G | d<D D/E/F/G/ A2 :: g | f>ed>e d/e/f/g/ a>f | 
 g>e =c>e (g2 g<)a | f>e d<e d/e/f/g/ a>f | a>fd>f a>ba>f | g>bge f>af>d | g/f/e/d/ =c>g ec g<e | 
 a<fg<e f<de<c | d/c/B/c/ dF D :|
